X: 627
T:Samhradh, Samhradh
M:3/4
L:1/4
S:Chieftains
D:Chieftains 5
R:air
N:Posted to the woodenflute mailing list February 2003
Z:Frances Campbell
K:G
e&gt;fd | e2A | d&gt;ef | g&gt;fe | f&gt;ed | B3 |
g&gt;ag | f&gt;ed | e2A | d2B | A&gt;gf | e&gt;dc |d2B | A3 ||

